_includes/icons/ios-christmas-gift.svg

<svg fill="#666" height="50" viewBox="0 0 50 50" width="50" xmlns="http://www.w3.org/2000/svg"><path d="m10.3125.09375c-1.507812-.0390625-3.0625.5-4.34375 1.78125-2.347656 2.347656-3.21875 4.867188-2.8125 7.15625.40625 2.289063 1.949219 4.214844 3.9375 5.8125 1.574219 1.265625 3.4375 2.324219 5.375 3.15625h-8.46875c-2.199219 0-4 1.800781-4 4v8.8125c-.0078125.0625-.0078125.125 0 .1875v6 .09375 8.90625c0 2.199219 1.800781 4 4 4h42c2.199219 0 4-1.800781 4-4v-8.84375c.003906-.050781.003906-.105469 0-.15625v-6c0-.03125 0-.0625 0-.09375v-8.90625c0-2.199219-1.800781-4-4-4h-8.46875c1.9375-.832031 3.800781-1.890625 5.375-3.15625 1.988281-1.597656 3.53125-3.523437 3.9375-5.8125.40625-2.289062-.464844-4.808594-2.8125-7.15625-1.460937-1.464844-3.304687-1.9453125-5-1.71875-1.695312.226563-3.234375 1.1875-4.09375 2.59375-2.007812 3.28125-4.667969 7.253906-6.75 9.53125-.367187-.164062-.761719-.28125-1.1875-.28125h-4c-.425781 0-.820312.117188-1.1875.28125-2.082031-2.277344-4.742187-6.25-6.75-9.53125-.859375-1.40625-2.398437-2.367187-4.09375-2.59375-.210937-.027344-.441406-.0585937-.65625-.0625zm-.4375 2c1.457031-.09375 2.863281.648438 3.5 1.6875 2.035156 3.328125 4.65625 7.324219 6.96875 9.84375-.140625.269531-.226562.566406-.28125.875-1.761719-1.289062-3.441406-3.304687-4.9375-5.03125-.9375-1.082031-1.796875-2.027344-2.75-2.625-.476562-.296875-1.003906-.507812-1.625-.46875-.621094.039063-1.214844.382813-1.625.875-.414062.496094-.632812 1.140625-.59375 1.75.039063.609375.28125 1.140625.625 1.625.683594.964844 1.761719 1.789063 3.03125 2.59375 2.335938 1.480469 5.335938 2.800781 7.8125 3.71875v.0625c0 .332031.085938.636719.1875.9375-3.484375-.253906-8.59375-2.011719-11.84375-4.625-1.757812-1.414062-2.933594-3.015625-3.21875-4.625s.183594-3.371094 2.21875-5.40625c.769531-.773437 1.65625-1.132812 2.53125-1.1875zm30.25 0c.875.054688 1.761719.414063 2.53125 1.1875 2.035156 2.035156 2.503906 3.796875 2.21875 5.40625s-1.460937 3.210938-3.21875 4.625c-3.25 2.613281-8.359375 4.371094-11.84375 4.625.101563-.300781.1875-.605469.1875-.9375v-.0625c2.476563-.917969 5.476563-2.238281 7.8125-3.71875 1.269531-.804687 2.347656-1.628906 3.03125-2.59375.34375-.484375.585938-1.015625.625-1.625.039063-.609375-.179687-1.253906-.59375-1.75-.410156-.492187-1.003906-.835937-1.625-.875-.621094-.039062-1.148437.171875-1.625.46875-.953125.597656-1.8125 1.542969-2.75 2.625-1.496094 1.726563-3.175781 3.742188-4.9375 5.03125-.054687-.308594-.140625-.605469-.28125-.875 2.3125-2.519531 4.933594-6.515625 6.96875-9.84375.636719-1.039062 2.042969-1.78125 3.5-1.6875zm-29.25 6.25c.039063-.003906.199219.019531.46875.1875.539063.335938 1.367188 1.195313 2.28125 2.25.484375.558594 1.078125 1.214844 1.625 1.84375-.679687-.355469-1.417969-.691406-2-1.0625-1.15625-.734375-2.066406-1.492187-2.46875-2.0625-.203125-.285156-.273437-.507812-.28125-.625-.007812-.117187-.015625-.175781.125-.34375.164063-.195312.210938-.183594.25-.1875zm28.25 0c.039063.003906.085938-.007812.25.1875.140625.167969.132813.226563.125.34375-.007812.117188-.078125.339844-.28125.625-.402344.570313-1.3125 1.328125-2.46875 2.0625-.582031.371094-1.320312.707031-2 1.0625.546875-.628906 1.140625-1.285156 1.625-1.84375.914063-1.054687 1.742188-1.914062 2.28125-2.25.269531-.167969.429688-.191406.46875-.1875zm-16.125 5.65625h4c.238281 0 .453125.082031.625.21875.019531.023438.039063.042969.0625.0625.007813.007813.023438-.007812.03125 0 .019531.03125.039063.0625.0625.09375.136719.171875.21875.386719.21875.625v1.125.09375.09375.09375.59375c0 .558594-.441406 1-1 1h-4c-.558594 0-1-.441406-1-1v-.53125c0-.03125 0-.0625 0-.09375s0-.0625 0-.09375 0-.0625 0-.09375 0-.0625 0-.09375v-1.09375c0-.320312.144531-.597656.375-.78125.023438-.019531.042969-.039062.0625-.0625.15625-.105469.355469-.15625.5625-.15625zm-19 6h17v10h-19v-8c0-1.117187.882813-2 2-2zm19 0h4v17 .09375 10.90625h-4v-10.84375c.003906-.050781.003906-.105469 0-.15625v-6c0-.03125 0-.0625 0-.09375zm6 0h17c1.117188 0 2 .882813 2 2v8h-19zm-27 12h19v4h-19zm27 0h19v4h-19zm-27 6h19v10h-17c-1.117187 0-2-.882812-2-2zm27 0h19v8c0 1.117188-.882812 2-2 2h-17z"/></svg>

<svg xmlns="http://www.w3.org/2000/svg" viewBox="0 0 50 50" width="50" height="50" fill="#666"><path d="M 10.3125 0.09375 C 8.804688 0.0546875 7.25 0.59375 5.96875 1.875 C 3.621094 4.222656 2.75 6.742188 3.15625 9.03125 C 3.5625 11.320313 5.105469 13.246094 7.09375 14.84375 C 8.667969 16.109375 10.53125 17.167969 12.46875 18 L 4 18 C 1.800781 18 0 19.800781 0 22 L 0 30.8125 C -0.0078125 30.875 -0.0078125 30.9375 0 31 L 0 37 C 0 37.03125 0 37.0625 0 37.09375 L 0 46 C 0 48.199219 1.800781 50 4 50 L 46 50 C 48.199219 50 50 48.199219 50 46 L 50 37.15625 C 50.003906 37.105469 50.003906 37.050781 50 37 L 50 31 C 50 30.96875 50 30.9375 50 30.90625 L 50 22 C 50 19.800781 48.199219 18 46 18 L 37.53125 18 C 39.46875 17.167969 41.332031 16.109375 42.90625 14.84375 C 44.894531 13.246094 46.4375 11.320313 46.84375 9.03125 C 47.25 6.742188 46.378906 4.222656 44.03125 1.875 C 42.570313 0.410156 40.726563 -0.0703125 39.03125 0.15625 C 37.335938 0.382813 35.796875 1.34375 34.9375 2.75 C 32.929688 6.03125 30.269531 10.003906 28.1875 12.28125 C 27.820313 12.117188 27.425781 12 27 12 L 23 12 C 22.574219 12 22.179688 12.117188 21.8125 12.28125 C 19.730469 10.003906 17.070313 6.03125 15.0625 2.75 C 14.203125 1.34375 12.664063 0.382813 10.96875 0.15625 C 10.757813 0.128906 10.527344 0.0976563 10.3125 0.09375 Z M 9.875 2.09375 C 11.332031 2 12.738281 2.742188 13.375 3.78125 C 15.410156 7.109375 18.03125 11.105469 20.34375 13.625 C 20.203125 13.894531 20.117188 14.191406 20.0625 14.5 C 18.300781 13.210938 16.621094 11.195313 15.125 9.46875 C 14.1875 8.386719 13.328125 7.441406 12.375 6.84375 C 11.898438 6.546875 11.371094 6.335938 10.75 6.375 C 10.128906 6.414063 9.535156 6.757813 9.125 7.25 C 8.710938 7.746094 8.492188 8.390625 8.53125 9 C 8.570313 9.609375 8.8125 10.140625 9.15625 10.625 C 9.839844 11.589844 10.917969 12.414063 12.1875 13.21875 C 14.523438 14.699219 17.523438 16.019531 20 16.9375 L 20 17 C 20 17.332031 20.085938 17.636719 20.1875 17.9375 C 16.703125 17.683594 11.59375 15.925781 8.34375 13.3125 C 6.585938 11.898438 5.410156 10.296875 5.125 8.6875 C 4.839844 7.078125 5.308594 5.316406 7.34375 3.28125 C 8.113281 2.507813 9 2.148438 9.875 2.09375 Z M 40.125 2.09375 C 41 2.148438 41.886719 2.507813 42.65625 3.28125 C 44.691406 5.316406 45.160156 7.078125 44.875 8.6875 C 44.589844 10.296875 43.414063 11.898438 41.65625 13.3125 C 38.40625 15.925781 33.296875 17.683594 29.8125 17.9375 C 29.914063 17.636719 30 17.332031 30 17 L 30 16.9375 C 32.476563 16.019531 35.476563 14.699219 37.8125 13.21875 C 39.082031 12.414063 40.160156 11.589844 40.84375 10.625 C 41.1875 10.140625 41.429688 9.609375 41.46875 9 C 41.507813 8.390625 41.289063 7.746094 40.875 7.25 C 40.464844 6.757813 39.871094 6.414063 39.25 6.375 C 38.628906 6.335938 38.101563 6.546875 37.625 6.84375 C 36.671875 7.441406 35.8125 8.386719 34.875 9.46875 C 33.378906 11.195313 31.699219 13.210938 29.9375 14.5 C 29.882813 14.191406 29.796875 13.894531 29.65625 13.625 C 31.96875 11.105469 34.589844 7.109375 36.625 3.78125 C 37.261719 2.742188 38.667969 2 40.125 2.09375 Z M 10.875 8.34375 C 10.914063 8.339844 11.074219 8.363281 11.34375 8.53125 C 11.882813 8.867188 12.710938 9.726563 13.625 10.78125 C 14.109375 11.339844 14.703125 11.996094 15.25 12.625 C 14.570313 12.269531 13.832031 11.933594 13.25 11.5625 C 12.09375 10.828125 11.183594 10.070313 10.78125 9.5 C 10.578125 9.214844 10.507813 8.992188 10.5 8.875 C 10.492188 8.757813 10.484375 8.699219 10.625 8.53125 C 10.789063 8.335938 10.835938 8.347656 10.875 8.34375 Z M 39.125 8.34375 C 39.164063 8.347656 39.210938 8.335938 39.375 8.53125 C 39.515625 8.699219 39.507813 8.757813 39.5 8.875 C 39.492188 8.992188 39.421875 9.214844 39.21875 9.5 C 38.816406 10.070313 37.90625 10.828125 36.75 11.5625 C 36.167969 11.933594 35.429688 12.269531 34.75 12.625 C 35.296875 11.996094 35.890625 11.339844 36.375 10.78125 C 37.289063 9.726563 38.117188 8.867188 38.65625 8.53125 C 38.925781 8.363281 39.085938 8.339844 39.125 8.34375 Z M 23 14 L 27 14 C 27.238281 14 27.453125 14.082031 27.625 14.21875 C 27.644531 14.242188 27.664063 14.261719 27.6875 14.28125 C 27.695313 14.289063 27.710938 14.273438 27.71875 14.28125 C 27.738281 14.3125 27.757813 14.34375 27.78125 14.375 C 27.917969 14.546875 28 14.761719 28 15 L 28 16.125 C 28 16.15625 28 16.1875 28 16.21875 C 28 16.25 28 16.28125 28 16.3125 C 28 16.34375 28 16.375 28 16.40625 L 28 17 C 28 17.558594 27.558594 18 27 18 L 23 18 C 22.441406 18 22 17.558594 22 17 L 22 16.46875 C 22 16.4375 22 16.40625 22 16.375 C 22 16.34375 22 16.3125 22 16.28125 C 22 16.25 22 16.21875 22 16.1875 C 22 16.15625 22 16.125 22 16.09375 L 22 15 C 22 14.679688 22.144531 14.402344 22.375 14.21875 C 22.398438 14.199219 22.417969 14.179688 22.4375 14.15625 C 22.59375 14.050781 22.792969 14 23 14 Z M 4 20 L 21 20 L 21 30 L 2 30 L 2 22 C 2 20.882813 2.882813 20 4 20 Z M 23 20 L 27 20 L 27 37 C 27 37.03125 27 37.0625 27 37.09375 L 27 48 L 23 48 L 23 37.15625 C 23.003906 37.105469 23.003906 37.050781 23 37 L 23 31 C 23 30.96875 23 30.9375 23 30.90625 Z M 29 20 L 46 20 C 47.117188 20 48 20.882813 48 22 L 48 30 L 29 30 Z M 2 32 L 21 32 L 21 36 L 2 36 Z M 29 32 L 48 32 L 48 36 L 29 36 Z M 2 38 L 21 38 L 21 48 L 4 48 C 2.882813 48 2 47.117188 2 46 Z M 29 38 L 48 38 L 48 46 C 48 47.117188 47.117188 48 46 48 L 29 48 Z"/></svg>
